app/result/img/bens-2.svg

<svg width="47" height="36" viewBox="0 0 47 36" fill="none" xmlns="http://www.w3.org/2000/svg">
<path d="M9.09676 28.3407C8.64697 28.3407 8.20728 28.4754 7.83329 28.7279C7.4593 28.9804 7.16781 29.3393 6.99568 29.7592C6.82355 30.1791 6.77852 30.6411 6.86627 31.0868C6.95402 31.5326 7.17061 31.942 7.48867 32.2634C7.80672 32.5848 8.21194 32.8036 8.65309 32.8923C9.09424 32.981 9.5515 32.9354 9.96706 32.7615C10.3826 32.5876 10.7378 32.2931 10.9877 31.9152C11.2376 31.5373 11.371 31.093 11.371 30.6385C11.3703 30.0293 11.1305 29.4452 10.7041 29.0144C10.2778 28.5837 9.69971 28.3413 9.09676 28.3407ZM9.09676 31.4045C8.94683 31.4045 8.80027 31.3596 8.6756 31.2754C8.55094 31.1913 8.45378 31.0716 8.3964 30.9317C8.33903 30.7917 8.32401 30.6377 8.35326 30.4891C8.38251 30.3405 8.45471 30.204 8.56073 30.0969C8.66675 29.9898 8.80182 29.9169 8.94887 29.8873C9.09592 29.8577 9.24834 29.8729 9.38686 29.9309C9.52538 29.9889 9.64377 30.087 9.72707 30.213C9.81037 30.339 9.85483 30.4871 9.85483 30.6385C9.8546 30.8416 9.77466 31.0363 9.63254 31.1799C9.49043 31.3235 9.29774 31.4043 9.09676 31.4045Z" fill="#BE1622"/>
<path d="M37.9032 28.3407C37.4534 28.3407 37.0137 28.4754 36.6398 28.7279C36.2658 28.9804 35.9743 29.3393 35.8021 29.7592C35.63 30.1791 35.585 30.6411 35.6727 31.0868C35.7605 31.5326 35.9771 31.942 36.2951 32.2634C36.6132 32.5848 37.0184 32.8036 37.4596 32.8923C37.9007 32.981 38.358 32.9354 38.7735 32.7615C39.1891 32.5876 39.5443 32.2931 39.7942 31.9152C40.044 31.5373 40.1774 31.093 40.1774 30.6385C40.1767 30.0293 39.9369 29.4452 39.5106 29.0144C39.0842 28.5837 38.5062 28.3413 37.9032 28.3407ZM37.9032 31.4045C37.7533 31.4045 37.6067 31.3596 37.4821 31.2754C37.3574 31.1913 37.2602 31.0716 37.2029 30.9317C37.1455 30.7917 37.1305 30.6377 37.1597 30.4891C37.189 30.3405 37.2612 30.204 37.3672 30.0969C37.4732 29.9898 37.6083 29.9169 37.7553 29.8873C37.9024 29.8577 38.0548 29.8729 38.1933 29.9309C38.3318 29.9889 38.4502 30.087 38.5335 30.213C38.6168 30.339 38.6613 30.4871 38.6613 30.6385C38.6611 30.8416 38.5811 31.0363 38.439 31.1799C38.2969 31.3235 38.1042 31.4043 37.9032 31.4045Z" fill="#BE1622"/>
<path d="M46.8797 17.9685L40.0571 7.24506C39.9884 7.13723 39.894 7.04856 39.7826 6.98716C39.6712 6.92577 39.5463 6.89362 39.4194 6.89367H30.3226V2.68087C30.3218 1.9701 30.042 1.28867 29.5446 0.786077C29.0472 0.283486 28.3728 0.00078562 27.6694 0H2.65323C1.94979 0.00078562 1.27538 0.283486 0.777971 0.786077C0.280563 1.28867 0.000777519 1.9701 0 2.68087V30.6385C0 30.8417 0.0798672 31.0365 0.222032 31.1802C0.364197 31.3238 0.557013 31.4045 0.758065 31.4045H3.84528C4.02751 32.6805 4.65869 33.8474 5.62318 34.6914C6.58767 35.5354 7.82086 36 9.09677 36C10.3727 36 11.6059 35.5354 12.5704 34.6914C13.5349 33.8474 14.166 32.6805 14.3483 31.4045H32.6517C32.834 32.6805 33.4651 33.8474 34.4296 34.6914C35.3941 35.5354 36.6273 36 37.9032 36C39.1791 36 40.4123 35.5354 41.3768 34.6914C42.3413 33.8474 42.9725 32.6805 43.1547 31.4045H46.2419C46.443 31.4045 46.6358 31.3238 46.778 31.1802C46.9201 31.0365 47 30.8417 47 30.6385V18.3831C47 18.2361 46.9582 18.0923 46.8797 17.9685ZM9.09677 34.4684C8.34712 34.4684 7.6143 34.2437 6.99098 33.8229C6.36767 33.4021 5.88185 32.804 5.59497 32.1042C5.30809 31.4043 5.23303 30.6343 5.37928 29.8914C5.52553 29.1485 5.88653 28.4661 6.41661 27.9305C6.9467 27.3948 7.62207 27.0301 8.35732 26.8823C9.09257 26.7345 9.85468 26.8104 10.5473 27.1003C11.2399 27.3901 11.8318 27.881 12.2483 28.5108C12.6648 29.1406 12.8871 29.8811 12.8871 30.6385C12.8861 31.654 12.4864 32.6275 11.7758 33.3455C11.0652 34.0635 10.1017 34.4673 9.09677 34.4684ZM28.8065 29.8726H14.3483C14.166 28.5966 13.5349 27.4297 12.5704 26.5857C11.6059 25.7416 10.3727 25.2771 9.09677 25.2771C7.82086 25.2771 6.58767 25.7416 5.62318 26.5857C4.65869 27.4297 4.02751 28.5966 3.84528 29.8726H1.51613V22.2129H28.8065V29.8726ZM28.8065 20.681H1.51613V2.68087C1.51638 2.37623 1.63626 2.08414 1.84945 1.86873C2.06265 1.65331 2.35173 1.53218 2.65323 1.53193H27.6694C27.9709 1.53218 28.2599 1.65331 28.4731 1.86873C28.6863 2.08414 28.8062 2.37623 28.8065 2.68087V20.681ZM40.4674 10.7235L44.8537 17.6172H34.1129V10.7235H40.4674ZM37.9032 34.4684C37.1536 34.4684 36.4207 34.2437 35.7974 33.8229C35.1741 33.4021 34.6883 32.804 34.4014 32.1042C34.1145 31.4043 34.0395 30.6343 34.1857 29.8914C34.332 29.1485 34.693 28.4661 35.2231 27.9305C35.7531 27.3948 36.4285 27.0301 37.1638 26.8823C37.899 26.7345 38.6611 26.8104 39.3537 27.1003C40.0463 27.3901 40.6383 27.881 41.0548 28.5108C41.4712 29.1406 41.6935 29.8811 41.6935 30.6385C41.6925 31.654 41.2929 32.6275 40.5823 33.3455C39.8717 34.0635 38.9082 34.4673 37.9032 34.4684ZM45.4839 23.7449H43.9677C43.7667 23.7449 43.5739 23.6642 43.4317 23.5205C43.2895 23.3769 43.2097 23.1821 43.2097 22.9789C43.2097 22.7758 43.2895 22.5809 43.4317 22.4373C43.5739 22.2936 43.7667 22.2129 43.9677 22.2129H45.4839V23.7449ZM45.4839 20.681H43.9677C43.3646 20.681 42.7861 20.9231 42.3596 21.3541C41.9332 21.785 41.6935 22.3695 41.6935 22.9789C41.6935 23.5883 41.9332 24.1728 42.3596 24.6038C42.7861 25.0347 43.3646 25.2768 43.9677 25.2768H45.4839V29.8726H43.1547C42.9725 28.5966 42.3413 27.4297 41.3768 26.5857C40.4123 25.7416 39.1791 25.2771 37.9032 25.2771C36.6273 25.2771 35.3941 25.7416 34.4296 26.5857C33.4651 27.4297 32.834 28.5966 32.6517 29.8726H30.3226V8.4256H39.0053L39.4933 9.19156H33.3548C33.1538 9.19156 32.961 9.27226 32.8188 9.41591C32.6766 9.55955 32.5968 9.75438 32.5968 9.95753V18.3831C32.5968 18.5863 32.6766 18.7811 32.8188 18.9247C32.961 19.0684 33.1538 19.1491 33.3548 19.1491H45.4839V20.681Z" fill="#BE1622"/>
<path d="M35.629 20.681H33.3548C33.1538 20.681 32.961 20.7617 32.8188 20.9054C32.6766 21.049 32.5968 21.2438 32.5968 21.447C32.5968 21.6501 32.6766 21.845 32.8188 21.9886C32.961 22.1322 33.1538 22.2129 33.3548 22.2129H35.629C35.8301 22.2129 36.0229 22.1322 36.1651 21.9886C36.3072 21.845 36.3871 21.6501 36.3871 21.447C36.3871 21.2438 36.3072 21.049 36.1651 20.9054C36.0229 20.7617 35.8301 20.681 35.629 20.681Z" fill="#BE1622"/>
<path d="M19.7097 25.2768H25.7742C25.9752 25.2768 26.1681 25.1961 26.3102 25.0525C26.4524 24.9088 26.5323 24.714 26.5323 24.5108C26.5323 24.3077 26.4524 24.1129 26.3102 23.9692C26.1681 23.8256 25.9752 23.7449 25.7742 23.7449H19.7097C19.5086 23.7449 19.3158 23.8256 19.1736 23.9692C19.0315 24.1129 18.9516 24.3077 18.9516 24.5108C18.9516 24.714 19.0315 24.9088 19.1736 25.0525C19.3158 25.1961 19.5086 25.2768 19.7097 25.2768Z" fill="#BE1622"/>
<path d="M25.7742 26.0428H23.5C23.2989 26.0428 23.1061 26.1235 22.964 26.2671C22.8218 26.4108 22.7419 26.6056 22.7419 26.8087C22.7419 27.0119 22.8218 27.2067 22.964 27.3503C23.1061 27.494 23.2989 27.5747 23.5 27.5747H25.7742C25.9752 27.5747 26.1681 27.494 26.3102 27.3503C26.4524 27.2067 26.5323 27.0119 26.5323 26.8087C26.5323 26.6056 26.4524 26.4108 26.3102 26.2671C26.1681 26.1235 25.9752 26.0428 25.7742 26.0428Z" fill="#BE1622"/>
</svg>

<svg width="47" height="36" viewBox="0 0 47 36" fill="none" xmlns="http://www.w3.org/2000/svg"><path d="M9.097 28.34c-.45 0-.89.135-1.264.388a2.293 2.293 0 0 0-.837 1.031 2.32 2.32 0 0 0 .493 2.504 2.252 2.252 0 0 0 2.478.498 2.28 2.28 0 0 0 1.02-.846 2.315 2.315 0 0 0-.283-2.9 2.265 2.265 0 0 0-1.607-.674zm0 3.064a.752.752 0 0 1-.7-.472.774.774 0 0 1 .164-.835.756.756 0 0 1 .826-.166.76.76 0 0 1 .468.707.77.77 0 0 1-.222.542.755.755 0 0 1-.536.224zM37.903 28.34c-.45 0-.89.135-1.263.388a2.294 2.294 0 0 0-.838 1.031 2.32 2.32 0 0 0 .493 2.504 2.252 2.252 0 0 0 2.478.498 2.28 2.28 0 0 0 1.021-.846 2.316 2.316 0 0 0-.283-2.9 2.265 2.265 0 0 0-1.608-.674zm0 3.064a.752.752 0 0 1-.7-.472.774.774 0 0 1 .164-.835.756.756 0 0 1 .826-.166.76.76 0 0 1 .468.707.77.77 0 0 1-.222.542.755.755 0 0 1-.536.224z" fill="#BE1622"/><path d="M46.88 17.968L40.057 7.245a.762.762 0 0 0-.638-.351h-9.096V2.68c-.001-.71-.281-1.392-.778-1.895A2.642 2.642 0 0 0 27.669 0H2.653C1.95 0 1.275.283.778.786A2.698 2.698 0 0 0 0 2.681v27.958c0 .203.08.398.222.541a.754.754 0 0 0 .536.224h3.087a5.377 5.377 0 0 0 1.778 3.287A5.274 5.274 0 0 0 9.097 36c1.276 0 2.509-.465 3.473-1.309a5.377 5.377 0 0 0 1.778-3.287h18.304a5.377 5.377 0 0 0 1.778 3.287A5.274 5.274 0 0 0 37.903 36c1.276 0 2.51-.465 3.474-1.309a5.377 5.377 0 0 0 1.778-3.287h3.087c.201 0 .394-.08.536-.224A.77.77 0 0 0 47 30.64V18.383a.774.774 0 0 0-.12-.415zm-37.783 16.5c-.75 0-1.483-.224-2.106-.645a3.821 3.821 0 0 1-1.396-1.719 3.867 3.867 0 0 1-.216-2.213 3.842 3.842 0 0 1 1.038-1.96 3.754 3.754 0 0 1 4.13-.83c.693.29 1.285.78 1.701 1.41a3.858 3.858 0 0 1-.472 4.835 3.775 3.775 0 0 1-2.68 1.122zm19.71-4.595H14.348a5.377 5.377 0 0 0-1.778-3.287 5.274 5.274 0 0 0-3.473-1.309c-1.276 0-2.51.465-3.474 1.309a5.377 5.377 0 0 0-1.778 3.287H1.516v-7.66h27.29v7.66zm0-9.192H1.517v-18c0-.305.12-.597.332-.812.214-.216.503-.337.804-.337H27.67c.302 0 .59.121.804.337.213.215.333.507.334.812v18zm11.66-9.958l4.387 6.894H34.113v-6.894h6.354zm-2.564 23.745c-.75 0-1.482-.224-2.106-.645a3.821 3.821 0 0 1-1.396-1.719 3.867 3.867 0 0 1-.215-2.213 3.843 3.843 0 0 1 1.037-1.96 3.753 3.753 0 0 1 4.13-.83c.693.29 1.285.78 1.702 1.41a3.859 3.859 0 0 1-.473 4.835 3.775 3.775 0 0 1-2.679 1.122zm7.58-10.723h-1.515a.754.754 0 0 1-.536-.225.77.77 0 0 1 0-1.083.754.754 0 0 1 .536-.224h1.516v1.532zm0-3.064h-1.515c-.603 0-1.182.242-1.608.673a2.31 2.31 0 0 0 0 3.25c.426.43 1.005.673 1.608.673h1.516v4.596h-2.33a5.377 5.377 0 0 0-1.777-3.287 5.274 5.274 0 0 0-3.474-1.309c-1.276 0-2.509.465-3.473 1.309a5.377 5.377 0 0 0-1.778 3.287h-2.33V8.426h8.683l.488.766h-6.138a.754.754 0 0 0-.536.224.77.77 0 0 0-.222.542v8.425c0 .203.08.398.222.542a.754.754 0 0 0 .536.224h12.129v1.532z" fill="#BE1622"/><path d="M35.629 20.681h-2.274a.754.754 0 0 0-.536.224.77.77 0 0 0 0 1.084.754.754 0 0 0 .536.224h2.274c.201 0 .394-.08.536-.224a.77.77 0 0 0 0-1.084.754.754 0 0 0-.536-.224zM19.71 25.277h6.064c.201 0 .394-.08.536-.225a.77.77 0 0 0 0-1.083.754.754 0 0 0-.536-.224H19.71a.754.754 0 0 0-.536.224.77.77 0 0 0 0 1.083.754.754 0 0 0 .536.225zM25.774 26.043H23.5a.754.754 0 0 0-.536.224.77.77 0 0 0 0 1.083.754.754 0 0 0 .536.225h2.274c.201 0 .394-.081.536-.225a.77.77 0 0 0 0-1.083.754.754 0 0 0-.536-.224z" fill="#BE1622"/></svg>
